symbols/web/mood/materialsymbolsrounded/mood_wght500_20px.svg

<svg xmlns="http://www.w3.org/2000/svg" height="20" width="20"><path d="M12.896 9.271q.562 0 .937-.386.375-.385.375-.947 0-.563-.375-.948-.375-.386-.937-.386-.563 0-.958.386-.396.385-.396.948 0 .562.396.947.395.386.958.386Zm-5.729 0q.562 0 .937-.386.375-.385.375-.947 0-.563-.375-.948-.375-.386-.937-.386-.563 0-.959.386-.396.385-.396.948 0 .562.396.947.396.386.959.386Zm2.854 5.312q1.208 0 2.25-.593 1.041-.594 1.646-1.594.187-.313.021-.563-.167-.25-.563-.25H6.646q-.396 0-.563.25-.166.25.021.563.604 1 1.656 1.594 1.052.593 2.261.593ZM10 18.5q-1.771 0-3.323-.667-1.552-.666-2.698-1.812t-1.812-2.698Q1.5 11.771 1.5 10t.667-3.323q.666-1.552 1.812-2.698t2.698-1.812Q8.229 1.5 10 1.5t3.323.667q1.552.666 2.698 1.812t1.812 2.698Q18.5 8.229 18.5 10t-.667 3.323q-.666 1.552-1.812 2.698t-2.698 1.812Q11.771 18.5 10 18.5Zm0-8.5Zm0 6.521q2.708 0 4.615-1.896 1.906-1.896 1.906-4.625 0-2.708-1.906-4.615Q12.708 3.479 10 3.479T5.385 5.375Q3.479 7.271 3.479 10q0 2.708 1.906 4.615Q7.292 16.521 10 16.521Z"/></svg>

<svg xmlns="http://www.w3.org/2000/svg" height="20" width="20"><path d="M12.896 9.271Q13.458 9.271 13.833 8.885Q14.208 8.5 14.208 7.938Q14.208 7.375 13.833 6.99Q13.458 6.604 12.896 6.604Q12.333 6.604 11.938 6.99Q11.542 7.375 11.542 7.938Q11.542 8.5 11.938 8.885Q12.333 9.271 12.896 9.271ZM7.167 9.271Q7.729 9.271 8.104 8.885Q8.479 8.5 8.479 7.938Q8.479 7.375 8.104 6.99Q7.729 6.604 7.167 6.604Q6.604 6.604 6.208 6.99Q5.812 7.375 5.812 7.938Q5.812 8.5 6.208 8.885Q6.604 9.271 7.167 9.271ZM10.021 14.583Q11.229 14.583 12.271 13.99Q13.312 13.396 13.917 12.396Q14.104 12.083 13.938 11.833Q13.771 11.583 13.375 11.583H6.646Q6.25 11.583 6.083 11.833Q5.917 12.083 6.104 12.396Q6.708 13.396 7.76 13.99Q8.812 14.583 10.021 14.583ZM10 18.5Q8.229 18.5 6.677 17.833Q5.125 17.167 3.979 16.021Q2.833 14.875 2.167 13.323Q1.5 11.771 1.5 10Q1.5 8.229 2.167 6.677Q2.833 5.125 3.979 3.979Q5.125 2.833 6.677 2.167Q8.229 1.5 10 1.5Q11.771 1.5 13.323 2.167Q14.875 2.833 16.021 3.979Q17.167 5.125 17.833 6.677Q18.5 8.229 18.5 10Q18.5 11.771 17.833 13.323Q17.167 14.875 16.021 16.021Q14.875 17.167 13.323 17.833Q11.771 18.5 10 18.5ZM10 10Q10 10 10 10Q10 10 10 10Q10 10 10 10Q10 10 10 10Q10 10 10 10Q10 10 10 10Q10 10 10 10Q10 10 10 10ZM10 16.521Q12.708 16.521 14.615 14.625Q16.521 12.729 16.521 10Q16.521 7.292 14.615 5.385Q12.708 3.479 10 3.479Q7.292 3.479 5.385 5.375Q3.479 7.271 3.479 10Q3.479 12.708 5.385 14.615Q7.292 16.521 10 16.521Z"/></svg>
